Other-Icons/16x16-dark/places/folder-green.svg

<?xml version="1.0" encoding="UTF-8" standalone="no"?>
<svg
   xmlns:dc="http://purl.org/dc/elements/1.1/"
   xmlns:cc="http://creativecommons.org/ns#"
   xmlns:rdf="http://www.w3.org/1999/02/22-rdf-syntax-ns#"
   xmlns:svg="http://www.w3.org/2000/svg"
   xmlns="http://www.w3.org/2000/svg"
   xmlns:xlink="http://www.w3.org/1999/xlink"
   xmlns:sodipodi="http://sodipodi.sourceforge.net/DTD/sodipodi-0.dtd"
   xmlns:inkscape="http://www.inkscape.org/namespaces/inkscape"
   viewBox="0 0 16 16"
   version="1.1"
   id="svg6"
   sodipodi:docname="folder-green.svg"
   inkscape:version="0.92.4 5da689c313, 2019-01-14">
  <metadata
     id="metadata10">
    <rdf:RDF>
      <cc:Work
         rdf:about="">
        <dc:format>image/svg+xml</dc:format>
        <dc:type
           rdf:resource="http://purl.org/dc/dcmitype/StillImage" />
        <dc:title></dc:title>
      </cc:Work>
    </rdf:RDF>
  </metadata>
  <sodipodi:namedview
     pagecolor="#ffffff"
     bordercolor="#666666"
     borderopacity="1"
     objecttolerance="10"
     gridtolerance="10"
     guidetolerance="10"
     inkscape:pageopacity="0"
     inkscape:pageshadow="2"
     inkscape:window-width="599"
     inkscape:window-height="506"
     id="namedview8"
     showgrid="false"
     inkscape:zoom="14.335917"
     inkscape:cx="13.166607"
     inkscape:cy="8.0246621"
     inkscape:window-x="532"
     inkscape:window-y="266"
     inkscape:window-maximized="0"
     inkscape:current-layer="svg6" />
  <defs
     id="defs3051">
    <linearGradient
       inkscape:collect="always"
       id="linearGradient821">
      <stop
         style="stop-color:#72a046;stop-opacity:1"
         offset="0"
         id="stop817" />
      <stop
         style="stop-color:#72a046;stop-opacity:1"
         offset="1"
         id="stop819" />
    </linearGradient>
    <style
       type="text/css"
       id="current-color-scheme">
      .ColorScheme-Text {
        color:#4d4d4d;
      }
      </style>
    <linearGradient
       inkscape:collect="always"
       xlink:href="#linearGradient821"
       id="linearGradient823"
       x1="2"
       y1="8"
       x2="14"
       y2="8"
       gradientUnits="userSpaceOnUse" />
  </defs>
  <path
     style="fill:url(#linearGradient823);fill-opacity:1;stroke:none"
     d="M 2 2 L 2 3 L 2 6 L 2 7 L 2 13 L 2 14 L 14 14 L 14 13 L 14 6 L 14 5 L 14 4 L 9.0078125 4 L 7.0078125 2 L 7 2.0078125 L 7 2 L 3 2 L 2 2 z M 3 3 L 6.5917969 3 L 7.59375 4 L 7 4 L 7 4.0078125 L 6.9921875 4 L 4.9921875 6 L 3 6 L 3 3 z M 3 7 L 13 7 L 13 13 L 3 13 L 3 7 z "
     class="ColorScheme-Text"
     id="path4" />
</svg>

<svg xmlns="http://www.w3.org/2000/svg" xmlns:xlink="http://www.w3.org/1999/xlink" viewBox="0 0 16 16"><defs><linearGradient id="a"><stop offset="0" stop-color="#72a046"/><stop offset="1" stop-color="#72a046"/></linearGradient><linearGradient xlink:href="#a" id="b" x1="2" y1="8" x2="14" y2="8" gradientUnits="userSpaceOnUse"/></defs><path d="M2 2v12h12V4H9.008l-2-2L7 2.008V2H2zm1 1h3.592l1.002 1H7v.008L6.992 4l-2 2H3V3zm0 4h10v6H3V7z" fill="url(#b)" color="#4d4d4d"/></svg>
